X: 29556
T: Noel Hill's
R: reel
M: 4/4
K: Bdorian
a|:fB~B2 fBce|fB~B2 e2ce|fB~B2 fBcB|A2ce aece:|
fBbB fBce|fBbf eAce|fBbf fBcB|A2ce aece|
fBbB fBce|fBbf eAce|fBbf fBce|faaf efde||
|:~f3g fdde|fd~d2 eAce|~f3g fdde|faaf efde:|

